symbols/web/fiber_pin/materialsymbolsrounded/fiber_pin_wght200grad200_20px.svg

<svg xmlns="http://www.w3.org/2000/svg" height="20" width="20"><path d="M12.167 12.292q.145 0 .25-.104.104-.105.104-.271V8.938l2.083 3.124q.042.126.156.178.115.052.24.052.208 0 .375-.157.167-.156.167-.406V8.062q0-.145-.104-.26-.105-.114-.271-.114-.167 0-.261.104t-.094.27v2.959l-2.083-3.125q-.062-.084-.156-.146-.094-.062-.198-.062-.229 0-.406.177-.177.177-.177.406v3.646q0 .145.104.26.104.115.271.115Zm-2.459 0q.146 0 .25-.125.104-.125.104-.271V8.042q0-.125-.104-.24-.104-.114-.25-.114-.125 0-.239.114-.115.115-.115.24v3.875q0 .145.115.26.114.115.239.115Zm-4.833 0q.167 0 .271-.104.104-.105.104-.271v-1.438h1.562q.605 0 1.042-.427.438-.427.438-1.052v.146q0-.604-.438-1.031-.437-.427-1.042-.427H5.479q-.396 0-.687.291-.292.292-.292.688v3.25q0 .166.104.271.104.104.271.104Zm.375-2.563V8.417h2.042q.104 0 .177.073.073.072.073.177v.812q0 .104-.073.177t-.177.073Zm-1.312 6.604q-.834 0-1.407-.573-.573-.572-.573-1.406V5.646q0-.834.573-1.406.573-.573 1.407-.573h12.124q.834 0 1.407.573.573.572.573 1.406v8.708q0 .834-.573 1.406-.573.573-1.407.573Zm0-1.458q-.23 0-.376-.146-.145-.146-.145-.375V5.646q0-.229.145-.375.146-.146.376-.146-.23 0-.376.146-.145.146-.145.375v8.708q0 .229.145.375.146.146.376.146Zm0 0h12.124q.23 0 .376-.146.145-.146.145-.375V5.646q0-.229-.145-.375-.146-.146-.376-.146H3.938q-.23 0-.376.146-.145.146-.145.375v8.708q0 .229.145.375.146.146.376.146Z"/></svg>

<svg xmlns="http://www.w3.org/2000/svg" height="20" width="20"><path d="M12.167 12.292Q12.312 12.292 12.417 12.188Q12.521 12.083 12.521 11.917V8.938L14.604 12.062Q14.646 12.188 14.76 12.24Q14.875 12.292 15 12.292Q15.208 12.292 15.375 12.135Q15.542 11.979 15.542 11.729V8.062Q15.542 7.917 15.438 7.802Q15.333 7.688 15.167 7.688Q15 7.688 14.906 7.792Q14.812 7.896 14.812 8.062V11.021L12.729 7.896Q12.667 7.812 12.573 7.75Q12.479 7.688 12.375 7.688Q12.146 7.688 11.969 7.865Q11.792 8.042 11.792 8.271V11.917Q11.792 12.062 11.896 12.177Q12 12.292 12.167 12.292ZM9.708 12.292Q9.854 12.292 9.958 12.167Q10.062 12.042 10.062 11.896V8.042Q10.062 7.917 9.958 7.802Q9.854 7.688 9.708 7.688Q9.583 7.688 9.469 7.802Q9.354 7.917 9.354 8.042V11.917Q9.354 12.062 9.469 12.177Q9.583 12.292 9.708 12.292ZM4.875 12.292Q5.042 12.292 5.146 12.188Q5.25 12.083 5.25 11.917V10.479H6.812Q7.417 10.479 7.854 10.052Q8.292 9.625 8.292 9V9.146Q8.292 8.542 7.854 8.115Q7.417 7.688 6.812 7.688H5.479Q5.083 7.688 4.792 7.979Q4.5 8.271 4.5 8.667V11.917Q4.5 12.083 4.604 12.188Q4.708 12.292 4.875 12.292ZM5.25 9.729V8.417H7.292Q7.396 8.417 7.469 8.49Q7.542 8.562 7.542 8.667V9.479Q7.542 9.583 7.469 9.656Q7.396 9.729 7.292 9.729ZM3.938 16.333Q3.104 16.333 2.531 15.76Q1.958 15.188 1.958 14.354V5.646Q1.958 4.812 2.531 4.24Q3.104 3.667 3.938 3.667H16.062Q16.896 3.667 17.469 4.24Q18.042 4.812 18.042 5.646V14.354Q18.042 15.188 17.469 15.76Q16.896 16.333 16.062 16.333ZM3.938 14.875Q3.708 14.875 3.562 14.729Q3.417 14.583 3.417 14.354V5.646Q3.417 5.417 3.562 5.271Q3.708 5.125 3.938 5.125Q3.708 5.125 3.562 5.271Q3.417 5.417 3.417 5.646V14.354Q3.417 14.583 3.562 14.729Q3.708 14.875 3.938 14.875ZM3.938 14.875H16.062Q16.292 14.875 16.438 14.729Q16.583 14.583 16.583 14.354V5.646Q16.583 5.417 16.438 5.271Q16.292 5.125 16.062 5.125H3.938Q3.708 5.125 3.562 5.271Q3.417 5.417 3.417 5.646V14.354Q3.417 14.583 3.562 14.729Q3.708 14.875 3.938 14.875Z"/></svg>
